X: 1
T: Skye Boat Song    [G]
M: 3/4
L: 1/4
K: G
|: "G(D7)"D>ED | "G"G3 | "Am"A>BA | "D7"d3 | "G"B>AB | "C"E2E | "G"D3 | "(D7)"z3 :|
|: "Em"B>GB | B3 | "Am"A>EA | A3 | "Em"G>EG | G>AG | "C"E3 | "(D7)"z3 :|
